X: 41
T: Kitchen Girl
S:via PR
M:4/4
L:1/4
K:Amix
|:\
"A"[a2c2]"G"[g2B2] | "A"e/f/e/d/ cc/d/ | "A"e/c/e/f/ "G"g/a/b/a/ | "E"^ge ee/=g/ |
"A"a/b/a/f/ "G"g/a/g/f/ | "A"e/f/e/d/ c/d/e/f/ | "G"gd "E"e/f/e/d/ | "A"cA A2 :|
|:\
"Am"=cc/A/ "G"B/A/G/B/ | "Am"A/B/A/G/ E/D/E/G/ | "Am"A/G/A/B/ "C"=c/B/c/d/ | "Em"ee/g/ e/d/B/A/ |
"Am"=cc/A/ "G"B/A/G/B/ | "Am"A/B/A/G/ E/D/E/G/ | "Am"=c/B/A/c/ "G"B/A/G/B/ | "Am"A3/B/ A2 :|
